X:18484
T:Waltz. CJF.201
M:3/8
L:1/16
Q:60
S: C.J.Fox MS, 1829/33, Beverley,E.Yorks.
R:Waltz
O:England
A:East Yorkshire
B:Kidson Coll.Mitchell Lib.M1805
Z:P J Headford 2000
K:G
D2|G3BdB|e3cA2|.D.E.F.G.AB|(cB)(ed)d2|G3BdB|\
e3cA2|FAcAFA|G4:||:!Bd|(dcBc).A2|
(cBAB).G2|(dcBc).A2|d3BG2|(dcBc).A2|(cBAB).G2|\
BAcAFA|G4:||:!d2|(dg)(fedc)|(Bd).G2.G2|(FAcA)(FA)|
GB).d2.d2|(dgfedc)|(Bd).G2.G2|(FA)cA(FA)|G4:||:!G2|\
(FA)cA(FA)|(GB)dB(AG)|(FA)cA(FA)|(GB).d2.d2|
(dgfedc)|(Bd) .G2.G2|(FAcA)(FA)|G4:||


